icons/spotify.svg

<svg fill="none" height="12" viewBox="0 0 12 12" width="12" xmlns="http://www.w3.org/2000/svg"><rect fill="#1ed760" height="12" rx="2.5" width="12"/><path d="m6.00073 2.125c-2.13906 0-3.875 1.73594-3.875 3.875s1.73594 3.875 3.875 3.875 3.875-1.73594 3.875-3.875-1.73594-3.875-3.875-3.875z" fill="#000"/><path d="m8.47888 5.61094c-.08125 0-.13125-.02031-.20156-.06093-1.1125-.66407-3.10156-.82344-4.38906-.46407-.05625.01563-.12657.04063-.20157.04063-.20625 0-.36406-.16094-.36406-.36875 0-.2125.13125-.33281.27188-.37344.55-.16094 1.16562-.2375 1.83593-.2375 1.14063 0 2.33594.2375 3.20938.74688.12187.07031.20156.16718.20156.35312 0 .2125-.17187.36406-.3625.36406zm-.48437 1.19063c-.08125 0-.13594-.03594-.19219-.06563-.97656-.57812-2.43281-.81093-3.72813-.45937-.075.02031-.11562.04062-.18593.04062-.16719 0-.30313-.13593-.30313-.30312s.08125-.27813.24219-.32344c.43437-.12187.87812-.2125 1.52812-.2125 1.01407 0 1.99375.25156 2.76563.71094.12656.075.17656.17187.17656.30781-.00156.16875-.13281.30469-.30312.30469zm-.42032 1.025c-.06562 0-.10625-.02031-.16718-.05625-.975-.5875-2.10938-.6125-3.22969-.38281-.06094.01562-.14063.04062-.18594.04062-.15156 0-.24687-.12031-.24687-.24687 0-.16094.09531-.2375.2125-.2625 1.27968-.28282 2.5875-.25782 3.70312.40937.09531.06094.15156.11563.15156.25781 0 .14219-.11093.24063-.2375.24063z" fill="#1ed760"/></svg>

<svg width="12" height="12" viewBox="0 0 12 12" fill="none" xmlns="http://www.w3.org/2000/svg">
<rect width="12" height="12" rx="2" fill="#1ED760"/>
<g clip-path="url(#clip0_210_245)">
<path d="M6.00073 2.125C3.86167 2.125 2.12573 3.86094 2.12573 6C2.12573 8.13906 3.86167 9.875 6.00073 9.875C8.13979 9.875 9.87573 8.13906 9.87573 6C9.87573 3.86094 8.13979 2.125 6.00073 2.125Z" fill="black"/>
<path d="M8.47876 5.61094C8.39751 5.61094 8.34751 5.59063 8.2772 5.55001C7.1647 4.88594 5.17563 4.72657 3.88813 5.08594C3.83188 5.10157 3.76157 5.12657 3.68657 5.12657C3.48032 5.12657 3.32251 4.96563 3.32251 4.75782C3.32251 4.54532 3.45376 4.42501 3.59438 4.38438C4.14438 4.22344 4.76001 4.14688 5.43032 4.14688C6.57095 4.14688 7.76626 4.38438 8.6397 4.89376C8.76157 4.96407 8.84126 5.06094 8.84126 5.24688C8.84126 5.45938 8.66938 5.61094 8.47876 5.61094ZM7.99438 6.80157C7.91313 6.80157 7.85845 6.76563 7.8022 6.73594C6.82563 6.15782 5.36938 5.92501 4.07407 6.27657C3.99907 6.29688 3.95845 6.31719 3.88813 6.31719C3.72095 6.31719 3.58501 6.18126 3.58501 6.01407C3.58501 5.84688 3.66626 5.73594 3.8272 5.69063C4.26157 5.56876 4.70532 5.47813 5.35532 5.47813C6.36938 5.47813 7.34907 5.72969 8.12095 6.18907C8.24751 6.26407 8.29751 6.36094 8.29751 6.49688C8.29595 6.66563 8.1647 6.80157 7.99438 6.80157ZM7.57407 7.82657C7.50845 7.82657 7.46782 7.80626 7.40688 7.77032C6.43188 7.18282 5.29751 7.15782 4.1772 7.38751C4.11626 7.40313 4.03657 7.42813 3.99126 7.42813C3.8397 7.42813 3.74438 7.30782 3.74438 7.18126C3.74438 7.02032 3.8397 6.94376 3.95688 6.91876C5.23657 6.63594 6.54438 6.66094 7.66001 7.32813C7.75532 7.38907 7.81157 7.44376 7.81157 7.58594C7.81157 7.72813 7.70063 7.82657 7.57407 7.82657Z" fill="#1ED760"/>
</g>
<defs>
<clipPath id="clip0_210_245">
<rect width="7.75" height="8" fill="white" transform="translate(2.12573 2)"/>
</clipPath>
</defs>
</svg>
